images/advantages-img4.svg

<svg width="43" height="50" viewBox="0 0 43 50" fill="none" xmlns="http://www.w3.org/2000/svg">
<path d="M32.3689 18.3544H39.7076V49.8305H32.3689V18.3544Z" fill="#74C6FF"/>
<path d="M4.57275 25.0408H10.9072V49.8305H4.57275V25.0408Z" fill="#74C6FF"/>
<path d="M28.3174 9.79688H23.8188C23.2792 9.79688 22.8418 10.2343 22.8418 10.7739V15.2801C22.8418 15.8197 23.2792 16.2571 23.8188 16.2571H28.3174C28.857 16.2571 29.2944 15.8197 29.2944 15.2801V10.7739C29.2944 10.2343 28.857 9.79688 28.3174 9.79688ZM27.3403 14.3029H24.7959V11.751H27.3403V14.3029Z" fill="#00A9DD"/>
<path d="M19.4575 9.79688H14.959C14.4193 9.79688 13.9819 10.2343 13.9819 10.7739V15.2801C13.9819 15.8197 14.4193 16.2571 14.959 16.2571H19.4575C19.9972 16.2571 20.4346 15.8197 20.4346 15.2801V10.7739C20.4347 10.2343 19.9972 9.79688 19.4575 9.79688ZM18.4805 14.3029H15.936V11.751H18.4805V14.3029Z" fill="#00A9DD"/>
<path d="M28.3174 19.7164H23.8188C23.2792 19.7164 22.8418 20.1538 22.8418 20.6935V25.1996C22.8418 25.7393 23.2792 26.1767 23.8188 26.1767H28.3174C28.857 26.1767 29.2944 25.7393 29.2944 25.1996V20.6935C29.2944 20.1538 28.857 19.7164 28.3174 19.7164ZM27.3403 24.2225H24.7959V21.6705H27.3403V24.2225Z" fill="#00A9DD"/>
<path d="M19.4575 19.7164H14.959C14.4193 19.7164 13.9819 20.1538 13.9819 20.6935V25.1996C13.9819 25.7393 14.4193 26.1767 14.959 26.1767H19.4575C19.9972 26.1767 20.4346 25.7393 20.4346 25.1996V20.6935C20.4347 20.1538 19.9972 19.7164 19.4575 19.7164ZM18.4805 24.2225H15.936V21.6705H18.4805V24.2225Z" fill="#00A9DD"/>
<path d="M28.3174 29.636H23.8188C23.2792 29.636 22.8418 30.0734 22.8418 30.613V35.1191C22.8418 35.6587 23.2792 36.0961 23.8188 36.0961H28.3174C28.857 36.0961 29.2944 35.6587 29.2944 35.1191V30.613C29.2944 30.0735 28.857 29.636 28.3174 29.636ZM27.3403 34.142H24.7959V31.5901H27.3403V34.142Z" fill="#00A9DD"/>
<path d="M19.4575 29.636H14.959C14.4193 29.636 13.9819 30.0734 13.9819 30.613V35.1191C13.9819 35.6587 14.4193 36.0961 14.959 36.0961H19.4575C19.9972 36.0961 20.4346 35.6587 20.4346 35.1191V30.613C20.4347 30.0735 19.9972 29.636 19.4575 29.636ZM18.4805 34.142H15.936V31.5901H18.4805V34.142Z" fill="#00A9DD"/>
<path d="M41.5923 48.046H33.3461V5.46506C33.3461 4.92542 32.9087 4.48801 32.369 4.48801H30.2891V0.97727C30.2891 0.437524 29.8517 0.00012207 29.312 0.00012207H13.9644C13.4247 0.00012207 12.9873 0.437524 12.9873 0.977173V4.48792H10.9073C10.3677 4.48792 9.93027 4.92542 9.93027 5.46497V48.046H0.979004C0.439356 48.046 0.00195312 48.4834 0.00195312 49.0231C0.00195312 49.5627 0.439356 50.0001 0.979004 50.0001H41.5923C42.1319 50.0001 42.5693 49.5627 42.5693 49.0231C42.5693 48.4834 42.1319 48.046 41.5923 48.046ZM14.9414 1.95422H28.335V4.48792H14.9414V1.95422ZM18.6984 48.046V42.5805H24.5778V48.046H18.6984ZM26.532 48.046V41.6034C26.532 41.0638 26.0946 40.6264 25.555 40.6264H17.7214C17.1817 40.6264 16.7443 41.0638 16.7443 41.6034V48.046H11.8844V6.44211H31.392V48.046H26.532Z" fill="#00A9DD"/>
</svg>

<svg xmlns="http://www.w3.org/2000/svg" width="43" height="50" fill="none" xmlns:v="https://vecta.io/nano"><path d="M32.37 18.354h7.34V49.83h-7.34V18.354zM4.573 25.04h6.334v24.8H4.573v-24.8z" fill="#74c6ff"/><path d="M28.317 9.797h-4.5c-.54.0-.977.437-.977.977v4.506c0 .54.437.977.977.977h4.5c.54.0.977-.437.977-.977v-4.506c0-.54-.437-.977-.977-.977zm-.977 4.506h-2.544V11.75h2.544v2.552zm-7.882-4.506H14.96c-.54.0-.977.437-.977.977v4.506c0 .54.437.977.977.977h4.5c.54.0.977-.437.977-.977v-4.506c0-.54-.437-.977-.977-.977zm-.977 4.506h-2.544V11.75h2.544v2.552zm9.836 5.413h-4.5c-.54.0-.977.437-.977.977V25.2c0 .54.437.977.977.977h4.5c.54.0.977-.437.977-.977v-4.506c0-.54-.437-.977-.977-.977zm-.977 4.506h-2.544V21.67h2.544v2.552zm-7.882-4.506H14.96c-.54.0-.977.437-.977.977V25.2c0 .54.437.977.977.977h4.5c.54.0.977-.437.977-.977v-4.506c0-.54-.437-.977-.977-.977zm-.977 4.506h-2.544V21.67h2.544v2.552zm9.836 5.414h-4.5c-.54.0-.977.437-.977.977v4.506c0 .54.437.977.977.977h4.5c.54.0.977-.437.977-.977v-4.506c0-.54-.437-.977-.977-.977zm-.977 4.506h-2.544V31.6h2.544v2.552zm-7.882-4.506H14.96c-.54.0-.977.437-.977.977v4.506c0 .54.437.977.977.977h4.5c.54.0.977-.437.977-.977v-4.506c0-.54-.437-.977-.977-.977zm-.977 4.506h-2.544V31.6h2.544v2.552zm23.11 13.904h-8.246V5.465c0-.54-.437-.977-.977-.977h-2.08V.977c0-.54-.437-.977-.977-.977H13.964c-.54.0-.977.437-.977.977v3.5h-2.08c-.54.0-.977.438-.977.977v42.58H.98c-.54.0-.977.437-.977.977A.98.98.0 0 0 .98 50h40.613c.54.0.977-.437.977-.977s-.437-.977-.977-.977zM14.94 1.954h13.394v2.534H14.94V1.954zm3.757 46.092V42.58h5.88v5.465h-5.88zm7.834.0v-6.443c0-.54-.437-.977-.977-.977H17.72c-.54.0-.977.437-.977.977v6.443h-4.86V6.442H31.39v41.604h-4.86z" fill="#00a9dd"/></svg>
